X:1599
T:Blew Bell Hornpipe
B:Walsh
M:3/2
L:1/8
N:
K:Cm
E4 GABD E4| cBAG FGAG D2 F2|BAGF EFED C2 F2| AGFE B,EDF E4::\
e4 gbge cecA| F4 fgfe dcde| D2 E2 c3 B AGFE|AGFE B,EDF E4::\
EFGA B2 E2 D2 E2| FGA=B c2 F2 =E2 F2| g3 f edcB AGFE| AGFE B,EDA E4:|


